brandFactory_export/2.Regular/Bateria_Cargando_2Regular.svg

<?xml version="1.0" encoding="UTF-8"?>
<svg width="24px" height="24px" viewBox="0 0 24 24" version="1.1" xmlns="http://www.w3.org/2000/svg" xmlns:xlink="http://www.w3.org/1999/xlink">
    <title>2.Regular/Bateria_Cargando_2Regular</title>
    <g id="Symbols" stroke="none" stroke-width="1" fill="none" fill-rule="evenodd">
        <g id="2.Regular/Bateria_Cargando_2Regular" fill="#5CB615" fill-rule="nonzero">
            <path d="M18.7277311,19.7747899 L18.7277311,6.46386555 C18.7277311,5.48235294 18.4957983,4.77983193 18.0252101,4.31932773 C17.5478992,3.85546218 16.8252101,3.6302521 15.8134454,3.6302521 L8.9697479,3.6302521 C7.96806723,3.6302521 7.2487395,3.86218487 6.76470588,4.33613445 C6.28739496,4.80672269 6.05546218,5.49915966 6.05546218,6.46386555 L6.05546218,19.7747899 C6.05546218,20.7630252 6.28739496,21.4689076 6.76470588,21.9294118 C7.23865546,22.3865546 7.95798319,22.6084034 8.9697479,22.6084034 L15.8168067,22.6084034 C16.8285714,22.6084034 17.5478992,22.3865546 18.0218487,21.9294118 C18.4957983,21.4689076 18.7277311,20.7630252 18.7277311,19.7747899 Z M10.2369748,1.81176471 L10.2369748,2.61176471 L14.5462185,2.61176471 L14.5462185,1.81176471 C14.5462185,1.37142857 14.4084034,1.23697479 14.3647059,1.19327731 C14.3176471,1.14957983 14.1831933,1.01512605 13.7294118,1.01512605 L11.0571429,1.01512605 C10.610084,1.01512605 10.4722689,1.15294118 10.4252101,1.2 C10.3781513,1.24369748 10.2369748,1.38151261 10.2369748,1.81176471 Z M18.7647059,3.6 C19.4436975,4.26218487 19.7731092,5.19663866 19.7731092,6.46386555 L19.7731092,19.7747899 C19.7731092,21.0487395 19.4403361,21.989916 18.7546218,22.6521008 C18.0789916,23.307563 17.1142857,23.6268908 15.8168067,23.6268908 L8.9697479,23.6268908 C7.66890756,23.6268908 6.70756303,23.307563 6.02857143,22.6521008 C5.34285714,21.9932773 5.01008403,21.0521008 5.01008403,19.7781513 L5.01008403,6.46722689 C5.01008403,5.22352941 5.34285714,4.29243697 6.02184874,3.62352941 C6.71428571,2.94453782 7.67563025,2.61512605 8.9697479,2.61512605 L9.19495798,2.61512605 L9.19495798,1.81176471 C9.19495798,1.25042017 9.35966387,0.803361345 9.68235294,0.484033613 C10.005042,0.164705882 10.4689076,0 11.0571429,0 L13.7294118,0 C14.3176471,0 14.7815126,0.161344538 15.1042017,0.477310924 C15.4336134,0.796638655 15.5915966,1.23361345 15.5915966,1.81176471 L15.5915966,2.61176471 L15.8168067,2.61176471 C17.1176471,2.61176471 18.0823529,2.93445378 18.7647059,3.6 Z M12.7848739,16.9243697 L15.0369748,11.8655462 L12.3042017,12.2352941 C12.1529412,12.2554622 12.0016807,12.2117647 11.887395,12.1142857 C11.7731092,12.0168067 11.7092437,11.8756303 11.7092437,11.7277311 L11.7394958,9.02857143 L9.72268908,13.7915966 L12.1966387,13.4588235 C12.3445378,13.4386555 12.4957983,13.4823529 12.610084,13.5798319 C12.7243697,13.6773109 12.7882353,13.8151261 12.7882353,13.9630252 L12.7848739,16.9243697 Z M15.8134454,10.7361345 C15.9983193,10.712605 16.1831933,10.7865546 16.3008403,10.9344538 C16.4151261,11.0789916 16.4386555,11.2739496 16.3647059,11.4420168 L12.7378151,19.5865546 C12.6369748,19.8117647 12.3915966,19.9327731 12.1529412,19.8823529 C11.9142857,19.8352941 11.7394958,19.6268908 11.7361345,19.3848739 L11.7462185,14.5445378 L8.96638655,14.9176471 C8.78151261,14.9445378 8.6,14.8705882 8.48235294,14.7260504 C8.36806723,14.5848739 8.34117647,14.389916 8.41176471,14.2218487 L11.8134454,6.19495798 C11.9109244,5.96638655 12.1563025,5.83865546 12.4016807,5.88907563 C12.6436975,5.93613445 12.8184874,6.14789916 12.8184874,6.39327731 L12.7647059,11.1495798 L15.8134454,10.7361345 L15.8134454,10.7361345 Z" id="Bateria_Cargando_2Regular"></path>
        </g>
    </g>
</svg>

<svg width="24" height="24" viewBox="0 0 24 24" xmlns="http://www.w3.org/2000/svg"><path d="M18.728 19.775V6.464c0-.982-.232-1.684-.703-2.145-.477-.464-1.2-.689-2.212-.689H8.97c-1.002 0-1.721.232-2.205.706-.478.47-.71 1.163-.71 2.128v13.31c0 .989.232 1.695.71 2.155.474.458 1.193.68 2.205.68h6.847c1.012 0 1.73-.222 2.205-.68.474-.46.706-1.166.706-2.154zM10.237 1.812v.8h4.31v-.8c0-.44-.139-.575-.182-.619-.047-.043-.182-.178-.636-.178h-2.672c-.447 0-.585.138-.632.185-.047.044-.188.182-.188.612zM18.765 3.6c.679.662 1.008 1.597 1.008 2.864v13.31c0 1.275-.333 2.216-1.018 2.878-.676.656-1.64.975-2.938.975H8.97c-1.301 0-2.262-.32-2.941-.975-.686-.659-1.019-1.6-1.019-2.874V6.468c0-1.244.333-2.176 1.012-2.844.692-.68 1.654-1.009 2.948-1.009h.225v-.803c0-.562.165-1.009.487-1.328.323-.32.787-.484 1.375-.484h2.672c.589 0 1.053.161 1.375.477.33.32.488.757.488 1.335v.8h.225c1.3 0 2.265.322 2.948.988zm-5.98 13.324l2.252-5.058-2.733.37a.532.532 0 01-.417-.122.507.507 0 01-.178-.386l.03-2.7-2.016 4.764 2.474-.333c.148-.02.299.023.413.12a.5.5 0 01.178.384l-.003 2.961zm3.028-6.188c.185-.023.37.05.488.198.114.145.138.34.064.508l-3.627 8.145a.522.522 0 01-.585.295.517.517 0 01-.417-.497l.01-4.84-2.78.373a.525.525 0 01-.484-.192.498.498 0 01-.07-.504l3.401-8.027a.523.523 0 01.589-.306.515.515 0 01.416.504l-.053 4.757 3.048-.414z" fill="#5CB615" fill-rule="nonzero"/></svg>
